X: 60
T: Liaokuo de caoyuan
L: 1/8
M: 4/4
K: C
A2>d2 c e [I:setbarnb 1]| 
d3(3c/ d/ c/ A d | 
c A/ G/ F G A d | 
c4A d | 
cC2D C z | 
D F/ G/c4 | 
d4-d f | 
F A/ G/ GF2D/ C/ | 
A, C/ D/G3c | 
F D G FD2 |]

@@@ Tune index: 8728
